X: 132227
T: Maids in the Morning
S: "Jackson's Celebrated Irish Tunes"
L: 1/8
M: 6/8
R: jig
Q: 1/4=160
K: Ador
EFE G2A | BAG B3 | EFE G2A | GEA GED |
EFE G2A | BAG B3 | efg dBG | A3 A3 :|
AGE AGE | A2B c3 | EFE G2A | GEA GED |
AGE AGE | A2B c2d | efg dBG | A3 A3 :|
def gdB | A2B c3 | EFE G2A | GEA GED |
def gdB | A2B c2d | edB gdB | A3 A3 :|
gdB gdB | A2B c3 | EFE G2A | GEA GED |
gdB gdB | A2B c2d |edB gdB | A3 A3 :|
